X: 151
T: Fishers's Hornpipe.  for the fife.
%R: hornpipe, reel
Z: 2017 John Chambers <jc:trillian.mit.edu>
B: John Treat - "Gamut for the Fifes", 1779, p.15 #1
F: https://archive.org/details/GamutFortheFifes
M: C|
L: 1/8
K: D
% - - - - - - - - - - - - - - - - - - - - - - - - -
|:\
dAFA GBAG | FAGF GBAG | FDFD GEGE | FDFD ECB,A, |\
dAFA GBAG | FAGF GBAG | FAce gedc | d2d2 d4 :|
|:\
ecAc ecge | fdBd fdgf | ecAc ecgf | edcB A2A2 |\
BGEG BGdB | AFDF AFdB | AdcB AGFE | D2D2 D4 :|
% - - - - - - - - - - - - - - - - - - - - - - - - -
